tgrade/images/tgrade-symbol-gradient_lines.svg

<svg width="153" height="152" viewBox="0 0 153 152" fill="none" xmlns="http://www.w3.org/2000/svg">
<path fill-rule="evenodd" clip-rule="evenodd" d="M76.0211 0C34.0357 0 0 33.8606 0 75.625C0 117.389 34.0357 151.25 76.0211 151.25C118.007 151.25 152.042 117.389 152.042 75.625C152.042 33.8606 118.007 0 76.0211 0ZM3.37888 75.625C3.37888 35.7166 35.902 3.36112 76.0211 3.36112C116.14 3.36112 148.663 35.7166 148.663 75.625C148.663 115.533 116.14 147.889 76.0211 147.889C35.902 147.889 3.37888 115.533 3.37888 75.625ZM42.0456 54.501H63.2765V79.031C63.2765 80.2228 64.5107 81.048 65.7041 80.9433C65.9531 80.9215 66.2051 80.9103 66.4598 80.9103C71.151 80.9103 74.954 84.694 74.954 89.3606C74.954 91.6672 74.0249 93.7581 72.5186 95.283C71.5336 96.2802 71.4992 98.1285 72.861 98.4738C73.8707 98.7299 74.9287 98.866 76.0186 98.866C76.7146 98.866 77.3976 98.8105 78.0633 98.7037C79.178 98.5248 79.5791 97.2181 79.25 96.1436C79.0571 95.5135 78.9533 94.8449 78.9533 94.1521V93.0133C78.9533 89.2442 82.025 86.1887 85.814 86.1887C86.6309 86.1887 87.4144 86.3307 88.141 86.5913C88.4339 86.6963 88.7606 86.5007 88.7606 86.1909V54.501H110.001C115.866 54.501 120.621 49.7716 120.621 43.9375C120.621 38.1035 115.866 33.374 110.001 33.374H76.2257C76.1859 33.3734 76.146 33.3729 76.106 33.3727C76.0769 33.3725 76.0478 33.3724 76.0186 33.3724C75.9494 33.3724 75.8803 33.3729 75.8114 33.374H42.0456C36.1807 33.374 31.4262 38.1035 31.4262 43.9375C31.4262 49.7716 36.1807 54.501 42.0456 54.501ZM88.7529 93.5839C88.7529 95.3335 87.3271 96.7521 85.5682 96.7521C83.8093 96.7521 82.3835 95.3335 82.3835 93.5839C82.3835 91.8343 83.8093 90.4157 85.5682 90.4157C87.3271 90.4157 88.7529 91.8343 88.7529 93.5839ZM84.3676 109.698C81.9159 109.698 79.9284 107.72 79.9284 105.282C79.9284 102.843 81.9159 100.865 84.3676 100.865C86.8194 100.865 88.8069 102.843 88.8069 105.282C88.8069 107.72 86.8194 109.698 84.3676 109.698ZM85.6923 121.182C83.9761 121.182 82.5848 119.797 82.5848 118.09C82.5848 116.383 83.9761 114.999 85.6923 114.999C87.4085 114.999 88.7998 116.383 88.7998 118.09C88.7998 119.797 87.4085 121.182 85.6923 121.182ZM76.6373 116.765C78.4489 116.765 79.9175 115.304 79.9175 113.502C79.9175 111.7 78.4489 110.239 76.6373 110.239C74.8257 110.239 73.357 111.7 73.357 113.502C73.357 115.304 74.8257 116.765 76.6373 116.765ZM70.158 125.699C70.158 128.382 72.3443 130.557 75.0412 130.557C77.7381 130.557 79.9244 128.382 79.9244 125.699C79.9244 123.016 77.7381 120.841 75.0412 120.841C72.3443 120.841 70.158 123.016 70.158 125.699ZM66.2541 112.886C62.8209 112.886 60.0378 110.117 60.0378 106.702C60.0378 103.287 62.8209 100.518 66.2541 100.518C69.6872 100.518 72.4702 103.287 72.4702 106.702C72.4702 110.117 69.6872 112.886 66.2541 112.886ZM62.2156 89.3581C62.2156 87.0252 64.1167 85.1338 66.4619 85.1338C68.8071 85.1338 70.7082 87.0252 70.7082 89.3581C70.7082 91.6909 68.8071 93.5824 66.4619 93.5824C64.1167 93.5824 62.2156 91.6909 62.2156 89.3581Z" fill="url(#paint0_linear_1458_802)"/>
<defs>
<linearGradient id="paint0_linear_1458_802" x1="152.042" y1="151.25" x2="60.6679" y2="-30.5006" gradientUnits="userSpaceOnUse">
<stop stop-color="#71399F"/>
<stop offset="0.107338" stop-color="#71399F"/>
<stop offset="0.797852" stop-color="#EC096D"/>
<stop offset="1" stop-color="#EC096D"/>
</linearGradient>
</defs>
</svg>

<svg xmlns="http://www.w3.org/2000/svg" fill="none" viewBox="0 0 153 152">
  <path fill="url(#a)" fill-rule="evenodd" d="M76.02 0C34.04 0 0 33.86 0 75.63c0 41.76 34.04 75.62 76.02 75.62 41.99 0 76.02-33.86 76.02-75.63C152.04 33.87 118.01 0 76.02 0ZM3.38 75.63c0-39.91 32.52-72.27 72.64-72.27s72.64 32.36 72.64 72.27c0 39.9-32.52 72.26-72.64 72.26S3.38 115.53 3.38 75.63ZM42.05 54.5h21.23v24.53c0 1.2 1.23 2.02 2.42 1.91a8.47 8.47 0 0 1 9.25 8.42c0 2.3-.93 4.4-2.43 5.92-.99 1-1.02 2.85.34 3.2a12.83 12.83 0 0 0 5.2.22c1.12-.18 1.52-1.48 1.19-2.56a6.8 6.8 0 0 1-.3-1.99v-1.14a6.84 6.84 0 0 1 9.2-6.42c.28.1.61-.09.61-.4V54.5H110a10.6 10.6 0 0 0 10.62-10.56A10.6 10.6 0 0 0 110 33.37H76.23a11.88 11.88 0 0 0-.42 0H42.05a10.6 10.6 0 0 0-10.62 10.57A10.6 10.6 0 0 0 42.05 54.5Zm46.7 39.08a3.18 3.18 0 0 1-3.18 3.17 3.18 3.18 0 0 1-3.19-3.17 3.18 3.18 0 0 1 3.19-3.16 3.18 3.18 0 0 1 3.18 3.16Zm-4.38 16.12a4.43 4.43 0 0 1-4.44-4.42 4.43 4.43 0 0 1 4.44-4.42 4.43 4.43 0 0 1 4.44 4.42 4.43 4.43 0 0 1-4.44 4.42Zm1.32 11.48a3.1 3.1 0 0 1-3.1-3.09 3.1 3.1 0 0 1 6.22 0 3.13 3.13 0 0 1-3.12 3.1Zm-9.05-4.42a3.27 3.27 0 0 0 3.28-3.26c0-1.8-1.47-3.26-3.28-3.26a3.27 3.27 0 0 0-3.28 3.26c0 1.8 1.47 3.27 3.28 3.27Zm-6.48 8.94a4.87 4.87 0 0 0 4.88 4.86 4.87 4.87 0 1 0 0-9.72 4.87 4.87 0 0 0-4.88 4.86Zm-3.9-12.81a6.2 6.2 0 0 1-6.22-6.19 6.2 6.2 0 0 1 6.21-6.18 6.2 6.2 0 0 1 6.22 6.18 6.2 6.2 0 0 1-6.22 6.19Zm-4.04-23.53a4.24 4.24 0 0 1 8.5 0 4.25 4.25 0 0 1-4.26 4.22 4.24 4.24 0 0 1-4.24-4.22Z" clip-rule="evenodd"/>
  <defs>
    <linearGradient id="a" x1="152.04" x2="60.67" y1="151.25" y2="-30.5" gradientUnits="userSpaceOnUse">
      <stop stop-color="#71399F"/>
      <stop offset=".11" stop-color="#71399F"/>
      <stop offset=".8" stop-color="#EC096D"/>
      <stop offset="1" stop-color="#EC096D"/>
    </linearGradient>
  </defs>
</svg>
